X:25
T:Boogerman
B:Appalachian Fiddle, p.30
M:2/4
L:1/8
Z:abc-transcription Josh Larios <hades@elsewhere.org>, 2014.01.17
K:G
|:"G"DE GA | B2G2 | BG BG | AG EG |
DE GA | B2 ef | ge dB | AB G2 :|
|:"Em"Bd e2 | e3B | e2g2 | ed BA |
Bd e2 | e2 ef | ge dB | AB G2 :|

